public/utility-tower-bt.svg

<svg width="276" height="49" viewBox="0 0 276 49" fill="none" xmlns="http://www.w3.org/2000/svg">
<path d="M0.333333 24.5C0.333333 25.9728 1.52724 27.1667 3 27.1667C4.47276 27.1667 5.66667 25.9728 5.66667 24.5C5.66667 23.0272 4.47276 21.8333 3 21.8333C1.52724 21.8333 0.333333 23.0272 0.333333 24.5ZM3 25H106V24H3V25Z" fill="white"/>
<rect x="106" width="170" height="49" rx="24" fill="white"/>
<path d="M136.12 32.16C135.133 32.16 134.267 31.9533 133.52 31.54C132.773 31.1133 132.193 30.52 131.78 29.76C131.367 29 131.16 28.12 131.16 27.12V18H133.92V27.04C133.92 27.84 134.12 28.4867 134.52 28.98C134.933 29.4733 135.467 29.72 136.12 29.72H138.24C138.907 29.72 139.447 29.4733 139.86 28.98C140.273 28.4867 140.48 27.84 140.48 27.04V18H143.24V27.12C143.24 28.12 143.033 29 142.62 29.76C142.207 30.52 141.62 31.1133 140.86 31.54C140.1 31.9533 139.227 32.16 138.24 32.16H136.12ZM149.915 32C148.741 32 147.881 31.7333 147.335 31.2C146.788 30.6667 146.515 29.84 146.515 28.72V24.34H144.755V22.02H146.595V19H149.235V22.02H151.835V24.34H149.235V28.6C149.235 28.9733 149.301 29.2467 149.435 29.42C149.581 29.5933 149.808 29.68 150.115 29.68H151.835V32H149.915ZM155.478 21.08C154.958 21.08 154.538 20.9333 154.218 20.64C153.911 20.3333 153.758 19.9333 153.758 19.44C153.758 18.9467 153.911 18.5533 154.218 18.26C154.538 17.9533 154.958 17.8 155.478 17.8C155.998 17.8 156.411 17.9533 156.718 18.26C157.038 18.5533 157.198 18.9467 157.198 19.44C157.198 19.9333 157.038 20.3333 156.718 20.64C156.411 20.9333 155.998 21.08 155.478 21.08ZM154.118 22.02H156.838V32H154.118V22.02ZM162.959 32C161.773 32 160.899 31.7533 160.339 31.26C159.793 30.7533 159.519 29.9733 159.519 28.92V18H162.239V28.76C162.239 29.08 162.313 29.3133 162.459 29.46C162.606 29.6067 162.839 29.68 163.159 29.68H164.239V32H162.959ZM167.157 21.08C166.637 21.08 166.217 20.9333 165.897 20.64C165.591 20.3333 165.437 19.9333 165.437 19.44C165.437 18.9467 165.591 18.5533 165.897 18.26C166.217 17.9533 166.637 17.8 167.157 17.8C167.677 17.8 168.091 17.9533 168.397 18.26C168.717 18.5533 168.877 18.9467 168.877 19.44C168.877 19.9333 168.717 20.3333 168.397 20.64C168.091 20.9333 167.677 21.08 167.157 21.08ZM165.797 22.02H168.517V32H165.797V22.02ZM175.559 32C174.386 32 173.526 31.7333 172.979 31.2C172.432 30.6667 172.159 29.84 172.159 28.72V24.34H170.399V22.02H172.239V19H174.879V22.02H177.479V24.34H174.879V28.6C174.879 28.9733 174.946 29.2467 175.079 29.42C175.226 29.5933 175.452 29.68 175.759 29.68H177.479V32H175.559ZM183.165 36.06C182.085 36.06 181.192 35.7533 180.485 35.14C179.792 34.54 179.405 33.7467 179.325 32.76H182.005C182.032 33.0533 182.152 33.2867 182.365 33.46C182.578 33.6467 182.845 33.74 183.165 33.74H184.805C185.218 33.74 185.552 33.5667 185.805 33.22C186.072 32.8867 186.205 32.4467 186.205 31.9V30.6C185.898 31.0133 185.545 31.34 185.145 31.58C184.758 31.8067 184.372 31.92 183.985 31.92H182.665C181.612 31.92 180.765 31.5733 180.125 30.88C179.485 30.1733 179.165 29.24 179.165 28.08V22.02H181.885V28.12C181.885 28.56 181.992 28.92 182.205 29.2C182.432 29.4667 182.725 29.6 183.085 29.6H184.245C184.685 29.6 185.085 29.42 185.445 29.06C185.805 28.6867 186.058 28.2 186.205 27.6V22.02H188.925V31.9C188.925 32.7267 188.752 33.4533 188.405 34.08C188.072 34.7067 187.592 35.1933 186.965 35.54C186.338 35.8867 185.618 36.06 184.805 36.06H183.165ZM200.52 20.4H196.08V18H207.72V20.4H203.28V32H200.52V20.4ZM210.665 32.16C209.825 32.16 209.078 32 208.425 31.68C207.785 31.3467 207.285 30.88 206.925 30.28C206.578 29.68 206.405 28.9867 206.405 28.2V25.86C206.405 25.0733 206.585 24.38 206.945 23.78C207.305 23.1667 207.805 22.6933 208.445 22.36C209.098 22.0267 209.845 21.86 210.685 21.86H212.485C213.325 21.86 214.065 22.0267 214.705 22.36C215.358 22.6933 215.865 23.1667 216.225 23.78C216.585 24.38 216.765 25.0733 216.765 25.86V28.2C216.765 28.9867 216.585 29.68 216.225 30.28C215.865 30.88 215.358 31.3467 214.705 31.68C214.065 32 213.318 32.16 212.465 32.16H210.665ZM212.425 29.82C212.918 29.82 213.311 29.6533 213.605 29.32C213.898 28.9733 214.045 28.5267 214.045 27.98V26.04C214.045 25.4933 213.898 25.0533 213.605 24.72C213.311 24.3733 212.925 24.2 212.445 24.2H210.725C210.245 24.2 209.858 24.3733 209.565 24.72C209.271 25.0533 209.125 25.4933 209.125 26.04V27.98C209.125 28.5267 209.271 28.9733 209.565 29.32C209.858 29.6533 210.238 29.82 210.705 29.82H212.425ZM221.305 32C220.412 32 219.838 31.48 219.585 30.44L217.565 22.02H220.385L221.605 28.36H221.645L223.825 22.26H224.885C225.192 22.26 225.438 22.3267 225.625 22.46C225.812 22.5933 225.958 22.8 226.065 23.08L227.925 28.36H227.965L229.165 22.02H231.985L230.005 30.44C229.765 31.48 229.192 32 228.285 32H227.045L224.825 25.68L222.525 32H221.305ZM237.071 32.16C236.231 32.16 235.485 32.0067 234.831 31.7C234.191 31.38 233.691 30.94 233.331 30.38C232.971 29.8067 232.791 29.1533 232.791 28.42V25.84C232.791 25.0533 232.971 24.36 233.331 23.76C233.691 23.16 234.191 22.6933 234.831 22.36C235.485 22.0267 236.231 21.86 237.071 21.86H238.671C239.951 21.86 240.978 22.22 241.751 22.94C242.525 23.66 242.911 24.62 242.911 25.82V27.94H235.511V28.42C235.511 28.86 235.651 29.2133 235.931 29.48C236.211 29.7467 236.591 29.88 237.071 29.88H238.631C239.098 29.88 239.471 29.78 239.751 29.58C240.045 29.3667 240.191 29.0933 240.191 28.76H242.871C242.871 29.4267 242.691 30.02 242.331 30.54C241.971 31.06 241.465 31.46 240.811 31.74C240.171 32.02 239.431 32.16 238.591 32.16H237.071ZM240.231 25.98V25.82C240.231 25.3 240.091 24.8867 239.811 24.58C239.531 24.26 239.158 24.1 238.691 24.1H237.071C236.591 24.1 236.205 24.2667 235.911 24.6C235.618 24.9333 235.471 25.3733 235.471 25.92V25.98H240.231ZM244.754 22.02H247.274V23.3C247.527 22.9133 247.887 22.6 248.354 22.36C248.834 22.1067 249.334 21.98 249.854 21.98H251.214V24.34H249.854C249.147 24.34 248.574 24.5533 248.134 24.98C247.694 25.4067 247.474 25.9533 247.474 26.62V32H244.754V22.02Z" fill="black"/>
</svg>

<svg xmlns="http://www.w3.org/2000/svg" fill="none" viewBox="0 0 276 49"><path d="M.333 24.5a2.667 2.667 0 1 0 5.334 0 2.667 2.667 0 0 0-5.334 0ZM3 25h103v-1H3v1Z" fill="#fff"/><rect fill="#fff" width="170" height="49" x="106" rx="24"/><path d="M136.12 32.16c-.987 0-1.853-.207-2.6-.62a4.466 4.466 0 0 1-1.74-1.78c-.413-.76-.62-1.64-.62-2.64V18h2.76v9.04c0 .8.2 1.447.6 1.94.413.493.947.74 1.6.74h2.12c.667 0 1.207-.247 1.62-.74.413-.493.62-1.14.62-1.94V18h2.76v9.12c0 1-.207 1.88-.62 2.64-.413.76-1 1.353-1.76 1.78-.76.413-1.633.62-2.62.62h-2.12Zm13.795-.16c-1.174 0-2.034-.267-2.58-.8-.547-.533-.82-1.36-.82-2.48v-4.38h-1.76v-2.32h1.84V19h2.64v3.02h2.6v2.32h-2.6v4.26c0 .373.066.647.2.82.146.173.373.26.68.26h1.72V32h-1.92Zm5.563-10.92c-.52 0-.94-.147-1.26-.44-.307-.307-.46-.707-.46-1.2s.153-.887.46-1.18c.32-.307.74-.46 1.26-.46s.933.153 1.24.46c.32.293.48.687.48 1.18 0 .493-.16.893-.48 1.2-.307.293-.72.44-1.24.44Zm-1.36.94h2.72V32h-2.72v-9.98Zm8.841 9.98c-1.186 0-2.06-.247-2.62-.74-.546-.507-.82-1.287-.82-2.34V18h2.72v10.76c0 .32.074.553.22.7.147.147.38.22.7.22h1.08V32h-1.28Zm4.198-10.92c-.52 0-.94-.147-1.26-.44-.306-.307-.46-.707-.46-1.2s.154-.887.46-1.18c.32-.307.74-.46 1.26-.46s.934.153 1.24.46c.32.293.48.687.48 1.18 0 .493-.16.893-.48 1.2-.306.293-.72.44-1.24.44Zm-1.36.94h2.72V32h-2.72v-9.98Zm9.762 9.98c-1.173 0-2.033-.267-2.58-.8-.547-.533-.82-1.36-.82-2.48v-4.38h-1.76v-2.32h1.84V19h2.64v3.02h2.6v2.32h-2.6v4.26c0 .373.067.647.2.82.147.173.373.26.68.26h1.72V32h-1.92Zm7.606 4.06c-1.08 0-1.973-.307-2.68-.92-.693-.6-1.08-1.393-1.16-2.38h2.68a.978.978 0 0 0 .36.7c.213.187.48.28.8.28h1.64c.413 0 .747-.173 1-.52.267-.333.4-.773.4-1.32v-1.3c-.307.413-.66.74-1.06.98-.387.227-.773.34-1.16.34h-1.32c-1.053 0-1.9-.347-2.54-1.04-.64-.707-.96-1.64-.96-2.8v-6.06h2.72v6.1c0 .44.107.8.32 1.08.227.267.52.4.88.4h1.16c.44 0 .84-.18 1.2-.54.36-.373.613-.86.76-1.46v-5.58h2.72v9.88c0 .827-.173 1.553-.52 2.18a3.53 3.53 0 0 1-1.44 1.46c-.627.347-1.347.52-2.16.52h-1.64ZM200.52 20.4h-4.44V18h11.64v2.4h-4.44V32h-2.76V20.4Zm10.145 11.76c-.84 0-1.587-.16-2.24-.48-.64-.333-1.14-.8-1.5-1.4-.347-.6-.52-1.293-.52-2.08v-2.34c0-.787.18-1.48.54-2.08.36-.613.86-1.087 1.5-1.42.653-.333 1.4-.5 2.24-.5h1.8c.84 0 1.58.167 2.22.5a3.64 3.64 0 0 1 1.52 1.42c.36.6.54 1.293.54 2.08v2.34c0 .787-.18 1.48-.54 2.08a3.68 3.68 0 0 1-1.52 1.4c-.64.32-1.387.48-2.24.48h-1.8Zm1.76-2.34c.493 0 .886-.167 1.18-.5.293-.347.44-.793.44-1.34v-1.94c0-.547-.147-.987-.44-1.32-.294-.347-.68-.52-1.16-.52h-1.72c-.48 0-.867.173-1.16.52-.294.333-.44.773-.44 1.32v1.94c0 .547.146.993.44 1.34.293.333.673.5 1.14.5h1.72Zm8.88 2.18c-.893 0-1.467-.52-1.72-1.56l-2.02-8.42h2.82l1.22 6.34h.04l2.18-6.1h1.06c.307 0 .553.067.74.2.187.133.333.34.44.62l1.86 5.28h.04l1.2-6.34h2.82l-1.98 8.42c-.24 1.04-.813 1.56-1.72 1.56h-1.24l-2.22-6.32-2.3 6.32h-1.22Zm15.766.16c-.84 0-1.586-.153-2.24-.46-.64-.32-1.14-.76-1.5-1.32-.36-.573-.54-1.227-.54-1.96v-2.58c0-.787.18-1.48.54-2.08.36-.6.86-1.067 1.5-1.4.654-.333 1.4-.5 2.24-.5h1.6c1.28 0 2.307.36 3.08 1.08.774.72 1.16 1.68 1.16 2.88v2.12h-7.4v.48c0 .44.14.793.42 1.06.28.267.66.4 1.14.4h1.56c.467 0 .84-.1 1.12-.3.294-.213.44-.487.44-.82h2.68c0 .667-.18 1.26-.54 1.78-.36.52-.866.92-1.52 1.2-.64.28-1.38.42-2.22.42h-1.52Zm3.16-6.18v-.16c0-.52-.14-.933-.42-1.24-.28-.32-.653-.48-1.12-.48h-1.62c-.48 0-.866.167-1.16.5-.293.333-.44.773-.44 1.32v.06h4.76Zm4.523-3.96h2.52v1.28c.253-.387.613-.7 1.08-.94.48-.253.98-.38 1.5-.38h1.36v2.36h-1.36c-.707 0-1.28.213-1.72.64-.44.427-.66.973-.66 1.64V32h-2.72v-9.98Z" fill="#000"/></svg>
